src/main/resources/icons/UIDesignerIcons/com/intellij/uiDesigner/icons/toolbarSeparator.svg

<svg xmlns="http://www.w3.org/2000/svg" width="16" height="16" viewBox="0 0 16 16"><rect id="frame" width="16" height="16" fill="none"/><g fill="#9AA7B0" fill-opacity=".6" fill-rule="evenodd"><path d="M6 5v6H1V5h5zm4 0h5v6h-5V5zM3 7v2h2V7H3zm8 0v2h2V7h-2z"/><path d="M7 1h2v14H7z"/></g></svg>

<svg xmlns="http://www.w3.org/2000/svg" width="16" height="16" viewBox="0 0 16 16">
  <g fill="none" fill-opacity=".6" fill-rule="evenodd">
    <path fill="#9AA7B0" d="M6,5 L6,11 L1,11 L1,5 L6,5 Z M10,5 L15,5 L15,11 L10,11 L10,5 Z M3,7 L3,9 L5,9 L5,7 L3,7 Z M11,7 L11,9 L13,9 L13,7 L11,7 Z"/>
    <rect width="2" height="14" x="7" y="1" fill="#9AA7B0"/>
  </g>
</svg>
